public/img/filter/dessert.svg

<svg width="100" height="100" viewBox="0 0 100 100" fill="none" xmlns="http://www.w3.org/2000/svg">
<rect x="1" y="1" width="98" height="98" rx="14" stroke="#234cad" stroke-width="2"/>
<path d="M64.3441 53.4305C64.2291 53.8372 63.8582 54.1183 63.4355 54.1187C63.3485 54.1185 63.2619 54.1063 63.1781 54.0828C62.6762 53.9407 62.3843 53.4188 62.5259 52.9168L63.06 51.0262C63.2019 50.5241 63.724 50.2321 64.226 50.374C64.7281 50.5159 65.02 51.0379 64.8782 51.5399L64.3441 53.4305Z" fill="#234cad"/>
<path d="M63.0142 56.3912C63.215 56.6624 63.2558 57.02 63.1213 57.3295C61.4963 61.0093 58.3186 63.7756 54.4501 64.8782C54.1263 64.9734 53.7763 64.8887 53.5318 64.6559C53.2874 64.4231 53.1858 64.0777 53.2653 63.7495C53.3446 63.4216 53.593 63.1607 53.9168 63.0655H53.9167C57.2478 62.1204 59.986 59.7426 61.3888 56.5768C61.5233 56.2673 61.8127 56.0531 62.1479 56.0148C62.4831 55.9765 62.8135 56.1199 63.0142 56.3912Z" fill="#234cad"/>
<path d="M21.0001 25.2383C21.0012 24.7386 21.2029 24.2602 21.56 23.9108L22.9026 22.5682C23.2533 22.2066 23.7351 22.0017 24.2389 22C24.7483 21.9975 25.2376 22.1992 25.5972 22.5599L37.6755 34.6382C39.3449 28.8606 44.9572 25.1459 50.9278 25.8669C56.8984 26.5879 61.4652 31.5319 61.7112 37.5407C65.3998 39.4517 67.8697 43.1007 68.2731 47.2353C69.1271 47.9414 69.4886 49.0822 69.1969 50.1513L67.3455 56.7055C65.6946 62.378 61.26 66.8139 55.5878 68.4662L55.6928 68.4892C55.5059 69.3741 55.5483 70.2922 55.8162 71.1561C59.1816 71.5119 61.7372 74.3482 61.7415 77.7325C61.7415 78.2542 61.3186 78.677 60.7969 78.677H38.1261C37.6044 78.677 37.1815 78.2541 37.1815 77.7325C37.1857 74.3488 39.7405 71.5127 43.1055 71.1564C43.3738 70.2925 43.4168 69.3743 43.2302 68.4892L43.3352 68.4662C37.6635 66.8142 33.2289 62.3789 31.578 56.7069L29.7261 50.1513L29.7238 50.1421C29.4348 49.0748 29.7971 47.9371 30.65 47.2334C30.9345 44.276 32.2875 41.5239 34.4555 39.4924L21.5595 26.5971C21.1976 26.2381 20.9959 25.7481 21.0001 25.2383ZM49.4613 27.6676C44.2365 27.676 39.8292 31.5597 39.1633 36.7419C42.628 35.6418 46.4028 36.1422 49.4613 38.1068C52.5199 36.1421 56.2945 35.6418 59.7593 36.7419C59.0934 31.5597 54.6861 27.6761 49.4613 27.6676ZM56.0736 38.0585C51.0625 38.0542 46.7644 41.6315 45.8589 46.56H66.2783C65.3703 41.6371 61.0797 38.0625 56.0736 38.0585ZM39.1655 76.7879H59.757C59.3053 74.5904 57.3724 73.0123 55.129 73.0094H43.7936C41.5502 73.0123 39.6173 74.5904 39.1655 76.7879ZM53.7209 68.9199C52.6434 69.1235 51.5495 69.2276 50.453 69.2309H48.4697C47.3731 69.2276 46.2791 69.1235 45.2016 68.9199C45.2719 69.6554 45.2301 70.3973 45.0773 71.1202H53.8446C53.6919 70.3972 53.6503 69.6553 53.7209 68.9199ZM32.0024 48.5844C31.6261 48.7915 31.4381 49.2271 31.5453 49.6429L33.3963 56.1944C35.3725 62.8559 41.5214 67.4033 48.4697 67.3416H50.453C57.4017 67.4032 63.551 62.8551 65.5268 56.1929L67.3762 49.6466C67.4855 49.2277 67.295 48.7883 66.9145 48.5816C66.7601 48.4937 66.5853 48.4481 66.4076 48.4492H32.5148C32.3352 48.4484 32.1584 48.495 32.0024 48.5844ZM32.6442 46.56H43.9545C44.3809 43.7778 45.7529 41.2274 47.8395 39.3382C44.9181 37.7349 41.4046 37.6324 38.3949 39.0628C35.3851 40.4933 33.2457 43.2824 32.6442 46.56ZM35.9446 38.3102C36.3497 38.0292 36.7714 37.773 37.2073 37.5427C37.2166 37.3198 37.22 37.0953 37.2412 36.8756L35.5475 35.1839C35.5379 35.1866 35.531 35.1939 35.5211 35.1965L33.3687 35.7346L35.9446 38.3102ZM31.8108 34.1765L33.993 33.631L31.7663 31.4069C31.7577 31.4093 31.7516 31.4158 31.7428 31.4181L29.5903 31.9562L31.8108 34.1765ZM28.0321 30.3981L30.211 29.8533L27.9849 27.6298C27.9772 27.6319 27.9719 27.6376 27.9643 27.6396L25.8117 28.1777L28.0321 30.3981ZM24.2536 26.6197L26.4292 26.0757L24.2467 23.8956L22.8958 25.2618L24.2536 26.6197Z" fill="#234cad"/>
</svg>

<svg width="60" height="60" viewBox="0 0 100 100" fill="none" xmlns="http://www.w3.org/2000/svg"><rect x="1" y="1" width="98" height="98" rx="14" stroke="#234cad" stroke-width="2"/><path d="M64.344 53.43a.945.945 0 01-1.818-.513l.534-1.89a.945.945 0 011.818.513l-.534 1.89zM63.014 56.391c.201.271.242.629.107.939a13.535 13.535 0 01-8.67 7.548.945.945 0 01-.534-1.813 11.651 11.651 0 007.472-6.488.945.945 0 011.625-.186z" fill="#234cad"/><path d="M21 25.238c.001-.5.203-.978.56-1.327l1.343-1.343A1.87 1.87 0 0124.239 22c.51-.003.999.2 1.358.56l12.078 12.078a12.264 12.264 0 0124.036 2.903 12.26 12.26 0 016.562 9.694 2.82 2.82 0 01.924 2.916l-1.852 6.554a17.278 17.278 0 01-11.757 11.761l.105.023a5.304 5.304 0 00.123 2.667 6.622 6.622 0 015.925 6.576.944.944 0 01-.944.945h-22.67a.945.945 0 01-.946-.945 6.621 6.621 0 015.925-6.576 5.304 5.304 0 00.124-2.667l.105-.023a17.277 17.277 0 01-11.757-11.76l-1.852-6.555-.002-.009a2.817 2.817 0 01.926-2.909 12.21 12.21 0 013.806-7.74L21.559 26.596A1.892 1.892 0 0121 25.238zm28.461 2.43a10.4 10.4 0 00-10.298 9.074c3.465-1.1 7.24-.6 10.298 1.365a12.215 12.215 0 0110.298-1.365 10.4 10.4 0 00-10.298-9.074zm6.613 10.39a10.377 10.377 0 00-10.215 8.502h20.42a10.385 10.385 0 00-10.205-8.502zm-16.908 38.73h20.591a4.731 4.731 0 00-4.628-3.779H43.794a4.731 4.731 0 00-4.628 3.779zM53.72 68.92a17.89 17.89 0 01-3.268.31H48.47a17.892 17.892 0 01-3.268-.31c.07.735.028 1.477-.125 2.2h8.768a7.28 7.28 0 01-.124-2.2zM32.002 48.584a.94.94 0 00-.457 1.059l1.851 6.551A15.578 15.578 0 0048.47 67.342h1.983a15.579 15.579 0 0015.074-11.15l1.85-6.545a.941.941 0 00-.462-1.065 1.012 1.012 0 00-.507-.133H32.515c-.18 0-.357.046-.513.135zm.642-2.024h11.31a12.244 12.244 0 013.886-7.222 10.374 10.374 0 00-15.196 7.222zm3.3-8.25a12.28 12.28 0 011.263-.767c.01-.223.013-.448.034-.667l-1.694-1.692c-.01.003-.016.01-.026.013l-2.152.538 2.576 2.575zm-4.133-4.134l2.182-.545-2.227-2.224c-.008.002-.014.009-.023.011l-2.153.538 2.22 2.22zm-3.779-3.778l2.179-.545-2.226-2.223c-.008.002-.013.008-.02.01l-2.153.538 2.22 2.22zm-3.778-3.778l2.175-.544-2.182-2.18-1.351 1.366 1.358 1.358z" fill="#234cad"/></svg>
